Papirus/24x24/panel/yd-busy3.svg

<?xml version="1.0" encoding="UTF-8" standalone="no"?>
<svg xmlns:dc="http://purl.org/dc/elements/1.1/" xmlns:cc="http://creativecommons.org/ns#" xmlns:rdf="http://www.w3.org/1999/02/22-rdf-syntax-ns#" xmlns:svg="http://www.w3.org/2000/svg" xmlns="http://www.w3.org/2000/svg" version="1.0" width="24" height="24" id="svg2817">
    <metadata id="metadata57">
        <rdf:RDF>
            <cc:Work rdf:about="">
                <dc:format>
                    image/svg+xml
                </dc:format>
                <dc:type rdf:resource="http://purl.org/dc/dcmitype/StillImage"/>
                <dc:title/>
            </cc:Work>
        </rdf:RDF>
    </metadata>
    <path style="opacity:1;fill:#ffffff;fill-opacity:1" d="M 4.911025,8.232929 C 4.7300183,8.240239 4.5839852,8.256463 4.4728385,8.274085 4.5980612,8.254907 4.7469605,8.241546 4.911025,8.232929 Z m 13.491863,8.009196 c 0.01569,0.04479 0.03217,0.0898 0.04242,0.129613 -0.0079,-0.03057 -0.02275,-0.0763 -0.04242,-0.129613 z m -6.068967,-5.558363 c 4.090925,2.326886 5.499495,4.362919 5.939234,5.25818 -0.48155,-0.986197 -1.715177,-2.62697 -2.013295,-3.803387 C 15.97505,11.014449 16.496009,8.9948193 14.116135,7.6412152 11.73664,6.2880629 10.292934,7.7227936 9.09069,8.0620384 8.1054009,8.3406065 6.0869977,8.169608 4.9115485,8.2327072 6.0144699,8.1863974 8.4269241,8.4626506 12.334072,10.683913 Z m 2.839485,-0.9016211 c 0.223767,0.1273445 0.443408,0.4607701 0.505134,0.8339381 0.08809,0.529971 -0.155416,0.959131 -0.583768,0.715518 -0.428711,-0.243995 -0.615929,-0.917438 -0.480615,-1.320432 0.09581,-0.2842263 0.335986,-0.3563503 0.559239,-0.2289956 z M 13.55806,8.6490428 c 0.366291,0.2088916 0.515118,0.6308713 0.332087,0.9437823 -0.182906,0.3120103 -0.628504,0.3965758 -0.994844,0.187808 C 12.528687,9.5719549 12.379832,9.1501156 12.56283,8.8371628 12.745702,8.5251505 13.191117,8.4407432 13.558084,8.6490945 Z M 10.768849,7.8237951 c 0.359352,-0.1337599 0.761805,-0.1131452 0.985461,0.013602 0.223222,0.1269853 0.280468,0.3681916 0.07862,0.5916003 C 11.546421,8.7460488 10.860969,8.9231293 10.432031,8.679378 10.003952,8.4359961 10.25917,8.0139031 10.768811,7.8237573 Z m 7.090843,9.6592709 C 18.506134,16.384078 15.808168,13.790315 11.90193,11.576668 7.9958821,9.363206 4.3589996,8.3664278 3.7136817,9.4657973 3.2764618,10.209445 4.2484246,11.850031 6.1313092,13.5184 c 0.6784548,0.805734 1.7817693,1.690667 3.1335366,2.459289 1.3321232,0.757786 2.6434382,1.25416 3.6834042,1.437191 2.473549,0.807388 4.466586,0.825071 4.911349,0.06806 z M 9.5694478,15.459108 C 7.8723707,14.494104 6.6419302,13.462885 6.8958185,13.030092 c 0.253302,-0.432672 1.8229259,0.01847 3.5200665,0.983937 1.697274,0.964506 2.878468,2.079439 2.625153,2.512413 -0.253161,0.432489 -1.774892,-0.10233 -3.4716536,-1.067348 z" id="yandex-ufo"/>
</svg>

<?xml version="1.0" encoding="UTF-8" standalone="no"?>
<svg id="svg2817" xmlns:rdf="http://www.w3.org/1999/02/22-rdf-syntax-ns#" xmlns="http://www.w3.org/2000/svg" height="24" width="24" version="1.0" xmlns:cc="http://creativecommons.org/ns#" xmlns:dc="http://purl.org/dc/elements/1.1/">
 <metadata id="metadata57">
  <rdf:RDF>
   <cc:Work rdf:about="">
    <dc:format>image/svg+xml</dc:format>
    <dc:type rdf:resource="http://purl.org/dc/dcmitype/StillImage"/>
    <dc:title/>
   </cc:Work>
  </rdf:RDF>
 </metadata>
 <path id="yandex-ufo" d="m4.911 8.2329c-0.181 0.0073-0.327 0.0236-0.4382 0.0412 0.1253-0.0192 0.2742-0.0326 0.4382-0.0412zm13.492 8.0092c0.01569 0.04479 0.03217 0.0898 0.04242 0.12961-0.0079-0.03057-0.02275-0.0763-0.04242-0.12961zm-6.069-5.5584c4.0909 2.3269 5.4995 4.3629 5.9392 5.2582-0.48155-0.9862-1.7152-2.627-2.0133-3.8034-0.285-1.125 0.236-3.1442-2.144-4.4978-2.379-1.3531-3.823 0.0816-5.0253 0.4208-0.9853 0.2786-3.0037 0.1076-4.1792 0.1707 1.103-0.0463 3.5154 0.23 7.4225 2.4513zm2.8395-0.90162c0.22377 0.12734 0.44341 0.46077 0.50513 0.83394 0.08809 0.52997-0.15542 0.95913-0.58377 0.71552-0.42871-0.244-0.61593-0.91744-0.48062-1.3204 0.09581-0.28423 0.33599-0.35635 0.55924-0.229zm-1.616-1.1334c0.36629 0.20889 0.51512 0.63087 0.33209 0.94378-0.18291 0.31201-0.6285 0.39658-0.99484 0.18781-0.366-0.2086-0.515-0.6305-0.332-0.9434 0.183-0.312 0.628-0.3965 0.995-0.1881zm-2.789-0.8252c0.35935-0.13376 0.7618-0.11315 0.98546 0.013602 0.22322 0.12699 0.28047 0.36819 0.07862 0.5916-0.287 0.317-0.972 0.4941-1.401 0.2504-0.428-0.2434-0.173-0.6655 0.337-0.8556zm7.0908 9.6593c0.646-1.099-2.052-3.693-5.958-5.906-3.9061-2.2138-7.543-3.2106-8.1883-2.1112-0.4372 0.7432 0.5347 2.3842 2.4176 4.0522 0.67845 0.80573 1.7818 1.6907 3.1335 2.4593 1.3321 0.75779 2.6434 1.2542 3.6834 1.4372 2.4735 0.80739 4.4666 0.82507 4.9113 0.06806zm-8.2906-2.024c-1.697-0.965-2.9275-1.996-2.6736-2.429 0.2533-0.43267 1.8229 0.01847 3.5201 0.98394 1.6973 0.96451 2.8785 2.0794 2.6252 2.5124-0.25316 0.43249-1.7749-0.10233-3.4717-1.0673z" fill="#fff"/>
</svg>
